polaris-icons/icons/newicons/SectionMajor.svg

<svg width="20" height="20" viewBox="0 0 20 20" fill="none" xmlns="http://www.w3.org/2000/svg">
<path d="M3 4.75C3 3.7835 3.7835 3 4.75 3H5.75C6.16421 3 6.5 3.33579 6.5 3.75C6.5 4.16421 6.16421 4.5 5.75 4.5H4.75C4.61193 4.5 4.5 4.61193 4.5 4.75V5.75C4.5 6.16421 4.16421 6.5 3.75 6.5C3.33579 6.5 3 6.16421 3 5.75V4.75Z" fill="black"/>
<path fill-rule="evenodd" clip-rule="evenodd" d="M4.5 7.5C3.67157 7.5 3 8.17157 3 9V11C3 11.8284 3.67157 12.5 4.5 12.5H15.5C16.3284 12.5 17 11.8284 17 11V9C17 8.17157 16.3284 7.5 15.5 7.5H4.5ZM15.5 9H4.5L4.5 11H15.5V9Z" fill="black"/>
<path d="M3 15.25C3 16.2165 3.7835 17 4.75 17H5.75C6.16421 17 6.5 16.6642 6.5 16.25C6.5 15.8358 6.16421 15.5 5.75 15.5H4.75C4.61193 15.5 4.5 15.3881 4.5 15.25V14.25C4.5 13.8358 4.16421 13.5 3.75 13.5C3.33579 13.5 3 13.8358 3 14.25V15.25Z" fill="black"/>
<path d="M15.25 3C16.2165 3 17 3.7835 17 4.75V5.75C17 6.16421 16.6642 6.5 16.25 6.5C15.8358 6.5 15.5 6.16421 15.5 5.75V4.75C15.5 4.61193 15.3881 4.5 15.25 4.5H14.25C13.8358 4.5 13.5 4.16421 13.5 3.75C13.5 3.33579 13.8358 3 14.25 3H15.25Z" fill="black"/>
<path d="M15.25 17C16.2165 17 17 16.2165 17 15.25V14.25C17 13.8358 16.6642 13.5 16.25 13.5C15.8358 13.5 15.5 13.8358 15.5 14.25V15.25C15.5 15.3881 15.3881 15.5 15.25 15.5H14.25C13.8358 15.5 13.5 15.8358 13.5 16.25C13.5 16.6642 13.8358 17 14.25 17H15.25Z" fill="black"/>
<path d="M11.75 3.75C11.75 4.16421 11.4142 4.5 11 4.5L9 4.5C8.58579 4.5 8.25 4.16421 8.25 3.75C8.25 3.33579 8.58579 3 9 3H11C11.4142 3 11.75 3.33579 11.75 3.75Z" fill="black"/>
<path d="M11 17C11.4142 17 11.75 16.6642 11.75 16.25C11.75 15.8358 11.4142 15.5 11 15.5H9C8.58579 15.5 8.25 15.8358 8.25 16.25C8.25 16.6642 8.58579 17 9 17H11Z" fill="black"/>
</svg>

<svg viewBox="0 0 20 20" fill="none" xmlns="http://www.w3.org/2000/svg"><path d="M3 4.75c0-.966.784-1.75 1.75-1.75h1a.75.75 0 0 1 0 1.5h-1a.25.25 0 0 0-.25.25v1a.75.75 0 0 1-1.5 0v-1Z" fill="#5C5F62"/><path fill-rule="evenodd" clip-rule="evenodd" d="M4.5 7.5a1.5 1.5 0 0 0-1.5 1.5v2a1.5 1.5 0 0 0 1.5 1.5h11a1.5 1.5 0 0 0 1.5-1.5v-2a1.5 1.5 0 0 0-1.5-1.5h-11Zm11 1.5h-11v2h11v-2Z" fill="#5C5F62"/><path d="M3 15.25c0 .966.784 1.75 1.75 1.75h1a.75.75 0 0 0 0-1.5h-1a.25.25 0 0 1-.25-.25v-1a.75.75 0 0 0-1.5 0v1Z" fill="#5C5F62"/><path d="M15.25 3c.966 0 1.75.784 1.75 1.75v1a.75.75 0 0 1-1.5 0v-1a.25.25 0 0 0-.25-.25h-1a.75.75 0 0 1 0-1.5h1Z" fill="#5C5F62"/><path d="M15.25 17a1.75 1.75 0 0 0 1.75-1.75v-1a.75.75 0 0 0-1.5 0v1a.25.25 0 0 1-.25.25h-1a.75.75 0 0 0 0 1.5h1Z" fill="#5C5F62"/><path d="M11.75 3.75a.75.75 0 0 1-.75.75h-2a.75.75 0 0 1 0-1.5h2a.75.75 0 0 1 .75.75Z" fill="#5C5F62"/><path d="M11 17a.75.75 0 0 0 0-1.5h-2a.75.75 0 0 0 0 1.5h2Z" fill="#5C5F62"/></svg>
